Newaita-dark/mimetypes/32/payment-card-mastercard.svg

<svg height="32pt" viewBox="0 0 32 32" width="32pt" xmlns="http://www.w3.org/2000/svg" xmlns:xlink="http://www.w3.org/1999/xlink"><linearGradient id="a" gradientUnits="userSpaceOnUse" x1="16.538045" x2="16.538045" y1="26.049371" y2="27.37241487502"><stop offset="0" stop-opacity=".27451"/><stop offset="1" stop-opacity="0"/></linearGradient><linearGradient id="b"><stop offset="0" stop-opacity=".313725"/><stop offset=".222222" stop-opacity=".27451"/><stop offset="1" stop-opacity="0"/></linearGradient><radialGradient id="c" cx="450.90894" cy="189.57936" gradientTransform="matrix(.00000017 -.0781325 -.140638 -.0000001 53.453693 61.61077)" gradientUnits="userSpaceOnUse" r="21.166656" xlink:href="#b"/><radialGradient id="d" cx="450.90894" cy="189.57936" gradientTransform="matrix(-.00000017 .0781325 .140638 .0000001 -21.700661 -9.512043)" gradientUnits="userSpaceOnUse" r="21.166656" xlink:href="#b"/><radialGradient id="e" cx="450.90894" cy="189.57936" gradientTransform="matrix(-.00000017 -.0781325 .140638 -.0000001 -21.700661 61.61077)" gradientUnits="userSpaceOnUse" r="21.166656" xlink:href="#b"/><radialGradient id="f" cx="450.90894" cy="189.57936" gradientTransform="matrix(.00000017 .0781325 -.140638 .0000001 53.453692 -9.512044)" gradientUnits="userSpaceOnUse" r="21.166656" xlink:href="#b"/><linearGradient id="g" gradientUnits="userSpaceOnUse" x1="15.876524" x2="15.876524" y1="30.68002175004" y2="1.57306087502"><stop offset="0" stop-color="#424242"/><stop offset="1" stop-color="#616161"/></linearGradient><linearGradient id="h" gradientUnits="userSpaceOnUse" x1="11.907393" x2="11.57663187498" y1="25.71860737498" y2="6.2037135"><stop offset="0" stop-color="#f44336"/><stop offset="1" stop-color="#ef5350"/></linearGradient><linearGradient id="i" gradientUnits="userSpaceOnUse" x1="18.85337225" x2="18.85337225" y1="26.0493695" y2="6.2037145"><stop offset="0" stop-color="#ffa726"/><stop offset="1" stop-color="#ffb74d"/></linearGradient><linearGradient id="j" gradientUnits="userSpaceOnUse" x1="18.85337225" x2="18.85337225" y1="26.0493685" y2="6.2037135"><stop offset="0" stop-color="#ff7043"/><stop offset="1" stop-color="#ff8a65"/></linearGradient><path d="m4.628906 26.050781h22.492188v1.320313h-22.492188zm0 0" fill="url(#a)"/><path d="m27.121094 26.050781h2.648437v-1.324219h-2.648437zm0 0" fill="url(#c)"/><path d="m4.628906 26.050781h-2.644531v1.320313h2.644531zm0 0" fill="url(#d)"/><path d="m4.628906 26.050781h-2.644531v-1.324219h2.644531zm0 0" fill="url(#e)"/><path d="m27.121094 26.050781h2.648437v1.320313h-2.648437zm0 0" fill="url(#f)"/><path d="m3.96875 6.203125h23.816406c.730469 0 1.320313.59375 1.320313 1.324219v17.199218c0 .730469-.589844 1.324219-1.320313 1.324219h-23.816406c-.730469 0-1.324219-.59375-1.324219-1.324219v-17.199218c0-.730469.59375-1.324219 1.324219-1.324219zm0 0" fill="url(#g)"/><path d="m3.96875 6.203125c-.734375 0-1.324219.589844-1.324219 1.324219v.332031c0-.734375.589844-1.324219 1.324219-1.324219h23.816406c.730469 0 1.320313.589844 1.320313 1.324219v-.332031c0-.734375-.589844-1.324219-1.320313-1.324219zm0 0" fill="#fff" fill-opacity=".392157"/><path d="m2.644531 24.40625v.320312c0 .734376.589844 1.324219 1.324219 1.324219h23.816406c.730469 0 1.320313-.589843 1.320313-1.324219v-.320312c0 .734375-.589844 1.324219-1.320313 1.324219h-23.816406c-.734375 0-1.324219-.589844-1.324219-1.324219zm0 0" fill-opacity=".235294"/><path d="m63.493937-115.759477h381.026113c11.686384 0 21.122983 9.499093 21.122983 21.185477v275.161223c0 11.686384-9.436599 21.185477-21.122983 21.185477h-381.026113c-11.686384 0-21.185477-9.499093-21.185477-21.185477v-275.161223c0-11.686384 9.499093-21.185477 21.185477-21.185477zm0 0" fill="none" stroke="#212121" stroke-linecap="round" stroke-linejoin="round" stroke-width="3" transform="matrix(.062506 0 0 .062506 0 13.438783)"/><path d="m12.570312 10.835938c2.921876 0 5.289063 2.367187 5.289063 5.289062 0 2.925781-2.367187 5.292969-5.289063 5.292969-2.925781 0-5.292968-2.367188-5.292968-5.292969 0-2.921875 2.367187-5.289062 5.292968-5.289062zm0 0" fill="url(#h)"/><path d="m19.183594 10.835938c2.921875 0 5.292968 2.367187 5.292968 5.289062 0 2.925781-2.371093 5.292969-5.292968 5.292969s-5.292969-2.367188-5.292969-5.292969c0-2.921875 2.371094-5.289062 5.292969-5.289062zm0 0" fill="url(#i)"/><path d="m15.875 11.988281c-1.210938.96875-1.984375 2.460938-1.984375 4.136719 0 1.679688.773437 3.171875 1.984375 4.136719 1.210938-.964844 1.984375-2.457031 1.984375-4.136719 0-1.675781-.773437-3.167969-1.984375-4.136719zm0 0" fill="url(#j)"/><g fill="#212121"><path d="m12.570312 10.742188c-2.984374 0-5.386718 2.402343-5.386718 5.382812 0 2.984375 2.402344 5.386719 5.386718 5.386719 1.28125 0 2.457032-.445313 3.382813-1.1875-.050781-.039063-.101563-.082031-.152344-.121094-.882812.703125-2.007812 1.121094-3.230469 1.121094-2.882812 0-5.199218-2.316407-5.199218-5.199219 0-2.878906 2.316406-5.195312 5.199218-5.195312 1.222657 0 2.347657.417968 3.230469 1.121093.050781-.042969.101563-.082031.152344-.121093-.925781-.742188-2.101563-1.1875-3.382813-1.1875zm0 0"/><path d="m19.183594 10.742188c-1.28125 0-2.457032.445312-3.382813 1.1875.050781.039062.101563.078124.148438.121093.886719-.703125 2.011719-1.121093 3.234375-1.121093 2.882812 0 5.199218 2.316406 5.199218 5.195312 0 2.882812-2.316406 5.199219-5.199218 5.199219-1.222656 0-2.347656-.417969-3.234375-1.121094-.046875.039063-.097657.082031-.148438.121094.925781.742187 2.101563 1.1875 3.382813 1.1875 2.984375 0 5.386718-2.402344 5.386718-5.386719 0-2.980469-2.402343-5.382812-5.386718-5.382812zm0 0"/></g></svg>

<?xml version="1.0" encoding="UTF-8"?>
<svg xmlns="http://www.w3.org/2000/svg" xmlns:xlink="http://www.w3.org/1999/xlink" width="32pt" height="32pt" viewBox="0 0 32 32" version="1.1">
<defs>
<linearGradient id="linear0" gradientUnits="userSpaceOnUse" x1="254" y1="233.5" x2="254" y2="254.66667" gradientTransform="matrix(0.062506,0,0,0.062506,0.661521,11.45422)">
<stop offset="0" style="stop-color:rgb(0%,0%,0%);stop-opacity:0.27451;"/>
<stop offset="1" style="stop-color:rgb(0%,0%,0%);stop-opacity:0;"/>
</linearGradient>
<radialGradient id="radial0" gradientUnits="userSpaceOnUse" cx="450.90894" cy="189.57936" fx="450.90894" fy="189.57936" r="21.166656" gradientTransform="matrix(0.00000017417,-0.0781325,-0.140638,-0.000000101539,53.453693,61.61077)">
<stop offset="0" style="stop-color:rgb(0%,0%,0%);stop-opacity:0.313725;"/>
<stop offset="0.222222" style="stop-color:rgb(0%,0%,0%);stop-opacity:0.27451;"/>
<stop offset="1" style="stop-color:rgb(0%,0%,0%);stop-opacity:0;"/>
</radialGradient>
<radialGradient id="radial1" gradientUnits="userSpaceOnUse" cx="450.90894" cy="189.57936" fx="450.90894" fy="189.57936" r="21.166656" gradientTransform="matrix(-0.00000017417,0.0781325,0.140638,0.000000101539,-21.700661,-9.512043)">
<stop offset="0" style="stop-color:rgb(0%,0%,0%);stop-opacity:0.313725;"/>
<stop offset="0.222222" style="stop-color:rgb(0%,0%,0%);stop-opacity:0.27451;"/>
<stop offset="1" style="stop-color:rgb(0%,0%,0%);stop-opacity:0;"/>
</radialGradient>
<radialGradient id="radial2" gradientUnits="userSpaceOnUse" cx="450.90894" cy="189.57936" fx="450.90894" fy="189.57936" r="21.166656" gradientTransform="matrix(-0.00000017417,-0.0781325,0.140638,-0.000000101539,-21.700661,61.61077)">
<stop offset="0" style="stop-color:rgb(0%,0%,0%);stop-opacity:0.313725;"/>
<stop offset="0.222222" style="stop-color:rgb(0%,0%,0%);stop-opacity:0.27451;"/>
<stop offset="1" style="stop-color:rgb(0%,0%,0%);stop-opacity:0;"/>
</radialGradient>
<radialGradient id="radial3" gradientUnits="userSpaceOnUse" cx="450.90894" cy="189.57936" fx="450.90894" fy="189.57936" r="21.166656" gradientTransform="matrix(0.00000017417,0.0781325,-0.140638,0.000000101539,53.453692,-9.512044)">
<stop offset="0" style="stop-color:rgb(0%,0%,0%);stop-opacity:0.313725;"/>
<stop offset="0.222222" style="stop-color:rgb(0%,0%,0%);stop-opacity:0.27451;"/>
<stop offset="1" style="stop-color:rgb(0%,0%,0%);stop-opacity:0;"/>
</radialGradient>
<linearGradient id="linear1" gradientUnits="userSpaceOnUse" x1="254" y1="275.83334" x2="254" y2="-189.83333" gradientTransform="matrix(0.062506,0,0,0.062506,0,13.438783)">
<stop offset="0" style="stop-color:rgb(25.882353%,25.882353%,25.882353%);stop-opacity:1;"/>
<stop offset="1" style="stop-color:rgb(38.039216%,38.039216%,38.039216%);stop-opacity:1;"/>
</linearGradient>
<linearGradient id="linear2" gradientUnits="userSpaceOnUse" x1="190.5" y1="196.45833" x2="185.20833" y2="-115.75" gradientTransform="matrix(0.062506,0,0,0.062506,0,13.438783)">
<stop offset="0" style="stop-color:rgb(95.686275%,26.27451%,21.176471%);stop-opacity:1;"/>
<stop offset="1" style="stop-color:rgb(93.72549%,32.54902%,31.372549%);stop-opacity:1;"/>
</linearGradient>
<linearGradient id="linear3" gradientUnits="userSpaceOnUse" x1="301.625" y1="201.75" x2="301.625" y2="-115.75" gradientTransform="matrix(0.062506,0,0,0.062506,0,13.438784)">
<stop offset="0" style="stop-color:rgb(100%,65.490196%,14.901961%);stop-opacity:1;"/>
<stop offset="1" style="stop-color:rgb(100%,71.764706%,30.196078%);stop-opacity:1;"/>
</linearGradient>
<linearGradient id="linear4" gradientUnits="userSpaceOnUse" x1="301.625" y1="201.75" x2="301.625" y2="-115.75" gradientTransform="matrix(0.062506,0,0,0.062506,0,13.438783)">
<stop offset="0" style="stop-color:rgb(100%,43.921569%,26.27451%);stop-opacity:1;"/>
<stop offset="1" style="stop-color:rgb(100%,54.117647%,39.607843%);stop-opacity:1;"/>
</linearGradient>
</defs>
<g id="surface1">
<path style=" stroke:none;fill-rule:nonzero;fill:url(#linear0);" d="M 4.628906 26.050781 L 27.121094 26.050781 L 27.121094 27.371094 L 4.628906 27.371094 Z M 4.628906 26.050781 "/>
<path style=" stroke:none;fill-rule:nonzero;fill:url(#radial0);" d="M 27.121094 26.050781 L 29.769531 26.050781 L 29.769531 24.726562 L 27.121094 24.726562 Z M 27.121094 26.050781 "/>
<path style=" stroke:none;fill-rule:nonzero;fill:url(#radial1);" d="M 4.628906 26.050781 L 1.984375 26.050781 L 1.984375 27.371094 L 4.628906 27.371094 Z M 4.628906 26.050781 "/>
<path style=" stroke:none;fill-rule:nonzero;fill:url(#radial2);" d="M 4.628906 26.050781 L 1.984375 26.050781 L 1.984375 24.726562 L 4.628906 24.726562 Z M 4.628906 26.050781 "/>
<path style=" stroke:none;fill-rule:nonzero;fill:url(#radial3);" d="M 27.121094 26.050781 L 29.769531 26.050781 L 29.769531 27.371094 L 27.121094 27.371094 Z M 27.121094 26.050781 "/>
<path style=" stroke:none;fill-rule:nonzero;fill:url(#linear1);" d="M 3.96875 6.203125 L 27.785156 6.203125 C 28.515625 6.203125 29.105469 6.796875 29.105469 7.527344 L 29.105469 24.726562 C 29.105469 25.457031 28.515625 26.050781 27.785156 26.050781 L 3.96875 26.050781 C 3.238281 26.050781 2.644531 25.457031 2.644531 24.726562 L 2.644531 7.527344 C 2.644531 6.796875 3.238281 6.203125 3.96875 6.203125 Z M 3.96875 6.203125 "/>
<path style=" stroke:none;fill-rule:nonzero;fill:rgb(100%,100%,100%);fill-opacity:0.392157;" d="M 3.96875 6.203125 C 3.234375 6.203125 2.644531 6.792969 2.644531 7.527344 L 2.644531 7.859375 C 2.644531 7.125 3.234375 6.535156 3.96875 6.535156 L 27.785156 6.535156 C 28.515625 6.535156 29.105469 7.125 29.105469 7.859375 L 29.105469 7.527344 C 29.105469 6.792969 28.515625 6.203125 27.785156 6.203125 Z M 3.96875 6.203125 "/>
<path style=" stroke:none;fill-rule:nonzero;fill:rgb(0%,0%,0%);fill-opacity:0.235294;" d="M 2.644531 24.40625 L 2.644531 24.726562 C 2.644531 25.460938 3.234375 26.050781 3.96875 26.050781 L 27.785156 26.050781 C 28.515625 26.050781 29.105469 25.460938 29.105469 24.726562 L 29.105469 24.40625 C 29.105469 25.140625 28.515625 25.730469 27.785156 25.730469 L 3.96875 25.730469 C 3.234375 25.730469 2.644531 25.140625 2.644531 24.40625 Z M 2.644531 24.40625 "/>
<path style="fill:none;stroke-width:3;stroke-linecap:round;stroke-linejoin:round;stroke:rgb(12.941176%,12.941176%,12.941176%);stroke-opacity:1;stroke-miterlimit:4;" d="M 63.493937 -115.759477 L 444.52005 -115.759477 C 456.206434 -115.759477 465.643033 -106.260384 465.643033 -94.574 L 465.643033 180.587223 C 465.643033 192.273607 456.206434 201.7727 444.52005 201.7727 L 63.493937 201.7727 C 51.807553 201.7727 42.30846 192.273607 42.30846 180.587223 L 42.30846 -94.574 C 42.30846 -106.260384 51.807553 -115.759477 63.493937 -115.759477 Z M 63.493937 -115.759477 " transform="matrix(0.062506,0,0,0.062506,0,13.438783)"/>
<path style=" stroke:none;fill-rule:nonzero;fill:url(#linear2);" d="M 12.570312 10.835938 C 15.492188 10.835938 17.859375 13.203125 17.859375 16.125 C 17.859375 19.050781 15.492188 21.417969 12.570312 21.417969 C 9.644531 21.417969 7.277344 19.050781 7.277344 16.125 C 7.277344 13.203125 9.644531 10.835938 12.570312 10.835938 Z M 12.570312 10.835938 "/>
<path style=" stroke:none;fill-rule:nonzero;fill:url(#linear3);" d="M 19.183594 10.835938 C 22.105469 10.835938 24.476562 13.203125 24.476562 16.125 C 24.476562 19.050781 22.105469 21.417969 19.183594 21.417969 C 16.261719 21.417969 13.890625 19.050781 13.890625 16.125 C 13.890625 13.203125 16.261719 10.835938 19.183594 10.835938 Z M 19.183594 10.835938 "/>
<path style=" stroke:none;fill-rule:nonzero;fill:url(#linear4);" d="M 15.875 11.988281 C 14.664062 12.957031 13.890625 14.449219 13.890625 16.125 C 13.890625 17.804688 14.664062 19.296875 15.875 20.261719 C 17.085938 19.296875 17.859375 17.804688 17.859375 16.125 C 17.859375 14.449219 17.085938 12.957031 15.875 11.988281 Z M 15.875 11.988281 "/>
<path style=" stroke:none;fill-rule:nonzero;fill:rgb(12.941176%,12.941176%,12.941176%);fill-opacity:1;" d="M 12.570312 10.742188 C 9.585938 10.742188 7.183594 13.144531 7.183594 16.125 C 7.183594 19.109375 9.585938 21.511719 12.570312 21.511719 C 13.851562 21.511719 15.027344 21.066406 15.953125 20.324219 C 15.902344 20.285156 15.851562 20.242188 15.800781 20.203125 C 14.917969 20.90625 13.792969 21.324219 12.570312 21.324219 C 9.6875 21.324219 7.371094 19.007812 7.371094 16.125 C 7.371094 13.246094 9.6875 10.929688 12.570312 10.929688 C 13.792969 10.929688 14.917969 11.347656 15.800781 12.050781 C 15.851562 12.007812 15.902344 11.96875 15.953125 11.929688 C 15.027344 11.1875 13.851562 10.742188 12.570312 10.742188 Z M 12.570312 10.742188 "/>
<path style=" stroke:none;fill-rule:nonzero;fill:rgb(12.941176%,12.941176%,12.941176%);fill-opacity:1;" d="M 19.183594 10.742188 C 17.902344 10.742188 16.726562 11.1875 15.800781 11.929688 C 15.851562 11.96875 15.902344 12.007812 15.949219 12.050781 C 16.835938 11.347656 17.960938 10.929688 19.183594 10.929688 C 22.066406 10.929688 24.382812 13.246094 24.382812 16.125 C 24.382812 19.007812 22.066406 21.324219 19.183594 21.324219 C 17.960938 21.324219 16.835938 20.90625 15.949219 20.203125 C 15.902344 20.242188 15.851562 20.285156 15.800781 20.324219 C 16.726562 21.066406 17.902344 21.511719 19.183594 21.511719 C 22.167969 21.511719 24.570312 19.109375 24.570312 16.125 C 24.570312 13.144531 22.167969 10.742188 19.183594 10.742188 Z M 19.183594 10.742188 "/>
</g>
</svg>
